X: 1
T: Mrs Crotty's
M: 4/4
L: 1/8
R: hornpipe
K: Cmaj
|:ef|g2 eg f2 df|e2 ce d2 Bd|c2 Bc de fd|e2 ce d2 ef|
g2 eg f2 df|e2 ce d2 Bd|c2 Bc de fd|e2 c2 c2:|
|:ed|cA AG Ad cA|GF EF GA BG|c2 Bc de fd|e2 ce d2 ed|
cA AG Ad cA|GF EF GA BG|c2 Bc de fd|e2 c2 c2:|
